projects/seb-pictograms/svg/regular/13-Picto-Regular_black.svg

<svg xmlns="http://www.w3.org/2000/svg" viewBox="0 0 170 170"><path d="M152.8 17.5h-136a12 12 0 00-12 12v83.4a12 12 0 0012 12h43.9v8.8A12.7 12.7 0 0148 146.4a3 3 0 000 6h73.6a3 3 0 100-6 12.7 12.7 0 01-12.6-12.7v-8.8h43.8a12 12 0 0012-12V29.5a12 12 0 00-12-12zm-136 6h136a6 6 0 016 6v4.7h-148v-4.7a6 6 0 016-6zm142 16.7v62.9h-148V40.2zM108 146.4H61.8a18.6 18.6 0 005-12.7v-8.8H103v8.8a18.6 18.6 0 005 12.7zm44.8-27.4h-136a6 6 0 01-6-6v-3.7h148v3.7a6 6 0 01-6 5.9z"/></svg>

<svg id="PIKTO_REGULAR" xmlns="http://www.w3.org/2000/svg" viewBox="0 0 170 170"><title>regular_black</title><path d="M152.8,17.5H16.8a12,12,0,0,0-12,12v83.4a12,12,0,0,0,12,12H60.7v8.8a12.7,12.7,0,0,1-12.7,12.7,3,3,0,0,0,0,6h73.6a3,3,0,1,0,0-6A12.7,12.7,0,0,1,109,133.7v-8.8h43.8a12,12,0,0,0,12-12V29.5A12,12,0,0,0,152.8,17.5Zm-136,6h136a6,6,0,0,1,6,6v4.7H10.8V29.5A6,6,0,0,1,16.8,23.5Zm142,16.7v62.9H10.8V40.2ZM108,146.4H61.8a18.6,18.6,0,0,0,5-12.7v-8.8H103v8.8A18.6,18.6,0,0,0,108,146.4Zm44.8-27.4H16.8a6,6,0,0,1-6-6v-3.7h148v3.7A6,6,0,0,1,152.8,118.9Z"/></svg>
